public/img/ug-avatar2.svg

<svg width="80" height="80" viewBox="0 0 80 80" fill="none" xmlns="http://www.w3.org/2000/svg">
<path d="M40 80C62.0914 80 80 62.0914 80 40C80 17.9086 62.0914 0 40 0C17.9086 0 0 17.9086 0 40C0 62.0914 17.9086 80 40 80Z" fill="#3E8F9C"/>
<mask id="mask0_821_347" style="mask-type:luminance" maskUnits="userSpaceOnUse" x="0" y="0" width="80" height="80">
<path d="M40 80C62.0914 80 80 62.0914 80 40C80 17.9086 62.0914 0 40 0C17.9086 0 0 17.9086 0 40C0 62.0914 17.9086 80 40 80Z" fill="white"/>
</mask>
<g mask="url(#mask0_821_347)">
<path d="M28.0581 19.7614C28.0581 19.7614 26.2541 30.0692 13.8522 37.5542C0.629742 45.5344 8.16423 70.8899 31.3195 71.4417C56.4699 72.0501 69.2537 40.6246 54.7153 14.9648L28.0581 19.7614Z" fill="#1E0B02"/>
<path d="M69.8268 63.8853C68.5321 60.4329 64.5703 55.898 56.9014 54.6954L42.6036 51.8867L28.3057 54.6954C20.6368 55.898 16.675 60.4329 15.3804 63.8853L12.3807 77.412H25.4971L26.4522 78.5015L42.3701 81.6356L58.7337 77.412H72.8123L69.8126 63.8853H69.8268Z" fill="#9C93E1"/>
<path d="M27.86 54.8364L43.3676 51.6953L57.8353 54.794L57.5169 55.0275C48.6736 61.3876 36.7811 61.0975 27.8671 54.8435L27.86 54.8364Z" fill="#E0A78F"/>
<path d="M34.871 31.9007C34.963 34.207 33.1589 36.1525 30.8526 36.2445C28.5463 36.3365 26.6007 34.5324 26.5088 32.2261C26.4168 29.9198 28.2208 27.9742 30.5272 27.8823C32.8335 27.7903 34.779 29.5943 34.871 31.9007Z" fill="#E0A78F"/>
<path d="M28.3058 31.5052C28.3058 31.5052 29.9613 30.6775 31.5743 33.5498" stroke="#B9635E" stroke-width="0.66" stroke-linecap="round" stroke-linejoin="round"/>
<path d="M50.1522 31.8657C50.1735 34.1791 52.0695 36.0327 54.3829 36.0044C56.6963 35.9832 58.5498 34.0872 58.5215 31.7737C58.5003 29.4603 56.6043 27.6068 54.2909 27.6351C51.9775 27.6563 50.1239 29.5523 50.1522 31.8657Z" fill="#E0A78F"/>
<path d="M56.6822 31.1439C56.6822 31.1439 54.9913 30.401 53.5127 33.3512" stroke="#B9635E" stroke-width="0.66" stroke-linecap="round" stroke-linejoin="round"/>
<path d="M42.4262 35.2062C50.3731 35.1244 56.7533 29.0434 56.6769 21.624C56.6005 14.2046 50.0964 8.25632 42.1495 8.33815C34.2027 8.41999 27.8224 14.5009 27.8988 21.9204C27.9752 29.3398 34.4793 35.288 42.4262 35.2062Z" fill="#1E0B02"/>
<path d="M46.6362 40.2567C46.6362 40.2567 44.8463 41.9405 43.1979 42.365C41.5495 42.7894 39.9294 41.5585 39.9082 41.5443C39.887 41.5302 37.9627 40.1152 37.9627 40.1152L37.333 53.8966L37.5523 54.123C40.3893 57.1085 44.4218 57.1085 47.2163 54.123L47.6266 53.6844L46.6362 40.2567Z" fill="#E0A78F"/>
<path d="M36.6397 38.3047C36.6397 38.3047 39.0451 46.3273 43.1837 46.2071C46.5866 46.108 47.4568 38.5947 47.4568 38.5947L36.6326 38.3047H36.6397Z" fill="#1E0B02"/>
<path d="M53.7249 24.0051C53.7957 28.5329 53.1802 32.4451 52.5505 35.2326C51.935 37.9563 50.1027 39.8806 47.4992 41.4512L47.0252 41.7341C44.2732 43.3896 40.6864 43.4816 37.8353 41.9747C34.963 40.4466 32.9396 38.4091 32.2817 35.5085C31.0861 30.2308 30.8738 24.3659 30.8738 24.3659C30.8738 24.3659 29.7914 12.1339 42.1154 12.1622C54.4395 12.1975 53.7178 24.0122 53.7178 24.0122L53.7249 24.0051Z" fill="#E0A78F"/>
<path d="M41.3725 30.3887L41.3938 32.1573L42.6035 32.1503" stroke="#B9635E" stroke-width="0.66" stroke-linecap="round" stroke-linejoin="round"/>
<path d="M33.2438 24.1192L39.7524 23.4612C39.7524 23.4612 39.1511 21.7775 36.5193 22.0817C33.8239 22.393 33.2438 24.1192 33.2438 24.1192Z" fill="#B9635E"/>
<path d="M51.3903 23.925L44.8674 23.4015C44.8674 23.4015 45.4334 21.7106 48.0723 21.9512C50.7748 22.2059 51.3903 23.9179 51.3903 23.9179V23.925Z" fill="#B9635E"/>
<path d="M38.0404 28.0244C38.0404 28.5762 37.6017 29.029 37.057 29.029C36.5122 29.029 36.0524 28.5904 36.0524 28.0456C36.0524 27.4938 36.491 27.041 37.0358 27.041C37.5876 27.041 38.0404 27.4796 38.0404 28.0244Z" fill="#1E0B02"/>
<path d="M47.8245 27.9248C47.8245 28.4766 47.3859 28.9294 46.8412 28.9294C46.2894 28.9294 45.8366 28.4908 45.8366 27.946C45.8366 27.3942 46.2752 26.9414 46.82 26.9414C47.3718 26.9414 47.8245 27.38 47.8245 27.9248Z" fill="#1E0B02"/>
<path d="M38.3658 34.7048C38.3658 34.7048 41.1532 36.1834 45.6032 34.627" stroke="black" stroke-width="0.66" stroke-linecap="round" stroke-linejoin="round"/>
<path d="M53.6966 21.2195C53.6966 21.2195 35.5643 22.0826 36.2223 11.4423C36.2223 11.4423 51.9846 6.80135 53.6966 21.2195Z" fill="#1E0B02"/>
<path d="M30.5766 21.4658C30.5766 21.4658 36.9226 18.735 36.8518 12.2051C36.8518 12.2051 30.329 13.0257 30.5766 21.4658Z" fill="#1E0B02"/>
</g>
</svg>

<?xml version="1.0" encoding="utf-8"?>
<!-- Generator: Adobe Illustrator 27.6.1, SVG Export Plug-In . SVG Version: 6.00 Build 0)  -->
<svg version="1.1" id="Layer_1" xmlns="http://www.w3.org/2000/svg" xmlns:xlink="http://www.w3.org/1999/xlink" x="0px" y="0px"
	 viewBox="0 0 80 80" style="enable-background:new 0 0 80 80;" xml:space="preserve">
<style type="text/css">
	.st0{fill:#E5F3F6;}
	.st1{fill:#FFFFFF;filter:url(#Adobe_OpacityMaskFilter);}
	.st2{mask:url(#mask0_821_347_00000075126534956798091890000011337800385015604623_);}
	.st3{fill:#1E0B02;}
	.st4{fill:#9C93E1;}
	.st5{fill:#E0A78F;}
	.st6{fill:none;stroke:#B9635E;stroke-width:0.66;stroke-linecap:round;stroke-linejoin:round;}
	.st7{fill:#B9635E;}
	.st8{fill:none;stroke:#000000;stroke-width:0.66;stroke-linecap:round;stroke-linejoin:round;}
</style>
<path class="st0" d="M40,80c22.1,0,40-17.9,40-40S62.1,0,40,0S0,17.9,0,40S17.9,80,40,80z"/>
<defs>
	<filter id="Adobe_OpacityMaskFilter" filterUnits="userSpaceOnUse" x="7.4" y="8.3" width="65.5" height="73.3">
		<feColorMatrix  type="matrix" values="1 0 0 0 0  0 1 0 0 0  0 0 1 0 0  0 0 0 1 0"/>
	</filter>
</defs>
<mask maskUnits="userSpaceOnUse" x="7.4" y="8.3" width="65.5" height="73.3" id="mask0_821_347_00000075126534956798091890000011337800385015604623_">
	<path class="st1" d="M40,80c22.1,0,40-17.9,40-40S62.1,0,40,0S0,17.9,0,40S17.9,80,40,80z"/>
</mask>
<g class="st2">
	<path class="st3" d="M28.1,19.8c0,0-1.8,10.3-14.2,17.8c-13.2,8-5.7,33.3,17.5,33.9C56.5,72.1,69.3,40.6,54.7,15L28.1,19.8z"/>
	<path class="st4" d="M69.8,63.9c-1.3-3.5-5.3-8-12.9-9.2l-14.3-2.8l-14.3,2.8c-7.7,1.2-11.6,5.7-12.9,9.2l-3,13.5h13.1l1,1.1
		l15.9,3.1l16.4-4.2h14.1L69.8,63.9L69.8,63.9z"/>
	<path class="st5" d="M27.9,54.8l15.5-3.1l14.5,3.1L57.5,55C48.7,61.4,36.8,61.1,27.9,54.8L27.9,54.8z"/>
	<path class="st5" d="M34.9,31.9c0.1,2.3-1.7,4.3-4,4.3s-4.3-1.7-4.3-4c-0.1-2.3,1.7-4.3,4-4.3C32.8,27.8,34.8,29.6,34.9,31.9z"/>
	<path class="st6" d="M28.3,31.5c0,0,1.7-0.8,3.3,2"/>
	<path class="st5" d="M50.2,31.9c0,2.3,1.9,4.2,4.2,4.1c2.3,0,4.2-1.9,4.1-4.2c0-2.3-1.9-4.2-4.2-4.1C52,27.7,50.1,29.6,50.2,31.9z"
		/>
	<path class="st6" d="M56.7,31.1c0,0-1.7-0.7-3.2,2.2"/>
	<path class="st3" d="M42.4,35.2c7.9-0.1,14.3-6.2,14.3-13.6S50.1,8.3,42.1,8.3c-7.9,0.1-14.3,6.2-14.3,13.6
		C28,29.3,34.5,35.3,42.4,35.2z"/>
	<path class="st5" d="M46.6,40.3c0,0-1.8,1.7-3.4,2.1c-1.6,0.4-3.3-0.8-3.3-0.8c0,0-1.9-1.4-1.9-1.4l-0.6,13.8l0.2,0.2
		c2.8,3,6.9,3,9.7,0l0.4-0.4L46.6,40.3z"/>
	<path class="st3" d="M36.6,38.3c0,0,2.4,8,6.5,7.9c3.4-0.1,4.3-7.6,4.3-7.6L36.6,38.3L36.6,38.3z"/>
	<path class="st5" d="M53.7,24c0.1,4.5-0.5,8.4-1.2,11.2c-0.6,2.7-2.4,4.6-5.1,6.2L47,41.7c-2.8,1.7-6.3,1.7-9.2,0.2
		c-2.9-1.5-4.9-3.6-5.6-6.5c-1.2-5.3-1.4-11.1-1.4-11.1s-1.1-12.2,11.2-12.2C54.4,12.2,53.7,24,53.7,24L53.7,24z"/>
	<path class="st6" d="M41.4,30.4l0,1.8l1.2,0"/>
	<path class="st7" d="M33.2,24.1l6.5-0.7c0,0-0.6-1.7-3.2-1.4C33.8,22.4,33.2,24.1,33.2,24.1z"/>
	<path class="st7" d="M51.4,23.9l-6.5-0.5c0,0,0.6-1.7,3.2-1.5C50.8,22.2,51.4,23.9,51.4,23.9L51.4,23.9z"/>
	<path class="st3" d="M38,28c0,0.6-0.4,1-1,1c-0.5,0-1-0.4-1-1c0-0.6,0.4-1,1-1C37.6,27,38,27.5,38,28z"/>
	<path class="st3" d="M47.8,27.9c0,0.6-0.4,1-1,1c-0.6,0-1-0.4-1-1c0-0.6,0.4-1,1-1C47.4,26.9,47.8,27.4,47.8,27.9z"/>
	<path class="st8" d="M38.4,34.7c0,0,2.8,1.5,7.2-0.1"/>
	<path class="st3" d="M53.7,21.2c0,0-18.1,0.9-17.5-9.8C36.2,11.4,52,6.8,53.7,21.2z"/>
	<path class="st3" d="M30.6,21.5c0,0,6.3-2.7,6.3-9.3C36.9,12.2,30.3,13,30.6,21.5z"/>
</g>
</svg>
